X:46
T:Aquilae duae, una ab ortu, altera ab occasu conveniunt
T:Two eagles meet, one from the east and one from the west
T:Fuga XLVI
Z:Jack Campin <http://www.campin.me.uk/> version 1.3 Jan 2007
S:Michael Maier, Atalanta Fugiens (1618)
B:NLS H3.91.708 (Joscelyn Godwin's edition)
V:1 program 1 2054               % Atalanta
V:2 program 1 2054               % Hippomenes
V:3 program 1 2054 transpose -12 % Golden Apple
M:none
L:1/2
Q:1/2=180
N:all voices are palindromic
K:D minor
[V:1] df2 ge f ecd c2A Bdc fef  g2f e2d cAG A^FG||
[V:2] f2d ec=B ceg egf dfe dAc =Bdc GEF Acd cA=B||
[V:3] d2d c2 d c2B c2d B2c d2A  G2A c2B A2B A2 G||
%
[V:1]  G^FA GAc de2 fg2  edf cdB Ac2 dce  feg f2d|]
[V:2] =B Ac dcA FEG cd=B cAd efd fge gec =Bce df2|]
[V:3]  G A2 BA2 Bc2 AG2  Ad2 cB2 dc2 Bc2  dc2 dd2|]


